assets/images/illustration-delete.svg

<svg viewBox="0 0 360 360" fill="none" xmlns="http://www.w3.org/2000/svg">
<circle cx="245.357" cy="253.093" r="55.5755" transform="rotate(-90 245.357 253.093)" fill="#FDEAEF"/>
<circle cx="113.996" cy="106.576" r="55.5755" transform="rotate(-90 113.996 106.576)" fill="#FDEAEF"/>
<rect x="268.092" y="122.949" width="37.6923" height="37.6923" transform="rotate(-83.1683 268.092 122.949)" fill="#FDEAEF"/>
<rect x="50" y="276.397" width="37.6923" height="37.6923" transform="rotate(-77.349 50 276.397)" fill="#FDEAEF"/>
<path d="M182.995 95.6288C134.268 95.6288 94.6289 134.535 94.6289 182.36C94.6289 230.186 134.268 269.092 182.995 269.092C231.722 269.092 271.361 230.186 271.361 182.36C271.361 134.535 231.722 95.6288 182.995 95.6288Z" fill="#D31140"/>
<path d="M163.747 217.095C161.625 217.095 159.808 216.34 158.298 214.829C156.785 213.317 156.028 211.499 156.028 209.376V159.204C154.935 159.204 154.018 158.835 153.277 158.096C152.538 157.355 152.169 156.438 152.169 155.344C152.169 154.251 152.538 153.334 153.277 152.593C154.018 151.854 154.935 151.485 156.028 151.485H171.466C171.466 150.391 171.837 149.474 172.578 148.733C173.316 147.995 174.232 147.626 175.325 147.626H190.763C191.857 147.626 192.774 147.995 193.515 148.733C194.253 149.474 194.622 150.391 194.622 151.485H210.06C211.154 151.485 212.07 151.854 212.808 152.593C213.549 153.334 213.92 154.251 213.92 155.344C213.92 156.438 213.549 157.355 212.808 158.096C212.07 158.835 211.154 159.204 210.06 159.204V209.376C210.06 211.499 209.305 213.317 207.795 214.829C206.282 216.34 204.464 217.095 202.341 217.095H163.747ZM171.466 197.798C171.466 198.891 171.837 199.807 172.578 200.546C173.316 201.287 174.232 201.657 175.325 201.657C176.419 201.657 177.336 201.287 178.077 200.546C178.816 199.807 179.185 198.891 179.185 197.798V170.782C179.185 169.689 178.816 168.771 178.077 168.03C177.336 167.292 176.419 166.923 175.325 166.923C174.232 166.923 173.316 167.292 172.578 168.03C171.837 168.771 171.466 169.689 171.466 170.782V197.798ZM186.904 197.798C186.904 198.891 187.274 199.807 188.015 200.546C188.754 201.287 189.67 201.657 190.763 201.657C191.857 201.657 192.774 201.287 193.515 200.546C194.253 199.807 194.622 198.891 194.622 197.798V170.782C194.622 169.689 194.253 168.771 193.515 168.03C192.774 167.292 191.857 166.923 190.763 166.923C189.67 166.923 188.754 167.292 188.015 168.03C187.274 168.771 186.904 169.689 186.904 170.782V197.798Z" fill="white"/>
</svg>

<svg viewBox="0 0 360 360" fill="none" xmlns="http://www.w3.org/2000/svg"><circle cx="245.4" cy="253.1" r="55.6" transform="rotate(-90 245.4 253)" fill="#FDEAEF"/><circle cx="114" cy="106.6" r="55.6" transform="rotate(-90 114 106.6)" fill="#FDEAEF"/><path transform="rotate(-83.2 268 123)" fill="#FDEAEF" d="M268.1 122.9H305.8V160.6H268.1z"/><path transform="rotate(-77.3 50 276.4)" fill="#FDEAEF" d="M50 276.4H87.7V314.1H50z"/><path d="M183 95.6c-48.7 0-88.4 39-88.4 86.8A87.7 87.7 0 0 0 183 269c48.7 0 88.4-39 88.4-86.7A87.7 87.7 0 0 0 183 95.6Z" fill="#D31140"/><path d="M163.7 217c-2 0-3.9-.7-5.4-2.2a7.4 7.4 0 0 1-2.3-5.4v-50.2a3.7 3.7 0 0 1-3.9-3.9c0-1 .4-2 1.2-2.7.7-.7 1.6-1.1 2.7-1.1h15.5c0-1.1.3-2 1-2.8.8-.7 1.7-1 2.8-1h15.5c1 0 2 .3 2.7 1 .8.8 1.1 1.7 1.1 2.8h15.5c1 0 2 .4 2.7 1 .7.8 1.1 1.8 1.1 2.8 0 1.1-.4 2-1 2.8-.8.7-1.7 1.1-2.8 1.1v50.2c0 2.1-.8 4-2.3 5.4a7.4 7.4 0 0 1-5.5 2.3h-38.6Zm7.8-19.2c0 1 .3 2 1 2.7.8.8 1.7 1.2 2.8 1.2 1.1 0 2-.4 2.8-1.2.7-.7 1-1.6 1-2.7v-27c0-1.1-.3-2-1-2.8a3.7 3.7 0 0 0-2.8-1c-1 0-2 .3-2.7 1-.8.8-1.1 1.7-1.1 2.8v27Zm15.4 0c0 1 .4 2 1.1 2.7.8.8 1.7 1.2 2.8 1.2 1 0 2-.4 2.7-1.2.8-.7 1.1-1.6 1.1-2.7v-27c0-1.1-.3-2-1-2.8a3.7 3.7 0 0 0-2.8-1c-1.1 0-2 .3-2.8 1-.7.8-1.1 1.7-1.1 2.8v27Z" fill="#fff"/></svg>
